X:1
T:Solon Wilder
T:Ephesus
%%score { ( 1 2 ) | ( 3 4 ) }
L:1/8
M:3/4
K:Bb
V:1 treble 
V:2 treble 
V:3 bass 
V:4 bass 
V:1
 d4 cd | e4 d2 | (c2 G2) A2 | c3 B F2 | d4 cd | e4 dc | (B3 c) A2 | B4 z2 | c4 dc | (f3 e) d2 | %10
 c4 dc | (f3 e) d2 | d4 f2 | (f2 e2) dc | (B3 d) c2 | B4 z2 | B6 | B6 |] %18
V:2
 F4 EF | G4 F2 | G4 E2 | D4 D2 | F4 DF | G4 FE | (D3 E) C2 | D4 z2 | F4 F2 | F4 F2 | F4 F2 | %11
 F4 F2 | F4 _A2 | G4 G2 | F4 E2 | D4 z2 | E6 | D6 |] %18
V:3
 B,4 B,2 | B,4 B,2 | (B,2 C2) C2 | B,4 B,2 | B,4 B,2 | B,4 G,2 | F,4 F,2 | F,4 z2 | A,4 A,2 | %9
 (B,3 A,) B,2 | A,4 A,2 | (B,3 A,) B,2 | B,4 B,2 | B,4 E2 | (D3 B,) A,2 | B,4 z2 | G,6 | F,6 |] %18
V:4
 B,,4 B,,2 | B,,4 B,,2 | E,4 F,2 | B,,4 B,,2 | B,,4 B,,2 | E,4 E,2 | F,4 F,2 | B,,4 z2 | F,4 E,2 | %9
 (D,3 C,) B,,2 | F,4 E,2 | (D,3 C,) B,,2 | B,,4 D,2 | E,4 E,2 | F,4 F,2 | B,,4 z2 | E,6 | B,,6 |] %18

